svg/u2648.svg

<svg viewBox="0 0 128 128" xmlns="http://www.w3.org/2000/svg">
  <circle cx="64" cy="64" r="60" fill="#C62828"/>
  <circle cx="60.1" cy="63.1" r="56.1" fill="#EF5350"/>
  <path d="M24,29.7c4.5-7.1,14.1-13,24.1-14.8c2.5-0.4,5-0.6,7.1,0.2 c1.6,0.6,2.9,2.1,2,3.8c-0.7,1.4-2.6,2-4.1,2.5c-9.3,3-17.9,6.4-23.1,14.3c-2,3-4.9,14.4-8.6,12.3C17.5,45.7,18.3,38.5,24,29.7z" opacity="0.6" fill="#E68C87" enable-background="new "/>
  <path d="M104.9,45.5c-1.9-5-5.9-8.9-10.9-10.7c-2.4-0.9-4.9-1.3-7.3-1.3c-10.3,0-18.9,8.1-19.6,18.4v0.2 c0,0.5-0.1,0.9-0.1,1.4l-2.5,20.7c-0.1,0.6-0.9,0.6-1,0L60.9,53c0-0.2,0-0.5,0-0.8c-0.4-10.5-9-18.8-19.6-18.8c-2.7,0-5.4,0.5-8,1.6 c-4.4,1.8-7.9,5.3-9.8,9.6c-1.4,3.3-2,6.8-1.7,10.2c0.1,1.5,1.5,2.7,3,2.7h1.5c0.6,0,1.1-0.1,1.6-0.3c1.8-0.8,2.8-2.4,2.8-4.1 c0-2.4,0.8-4.7,2.4-7c1.3-1.8,3.2-3,5.4-3.4c1-0.2,2-0.3,2.9-0.3c5.2,0,8.7,3.1,10.2,8.9c0.2,0.9,0.4,1.8,0.5,3.1l7.4,44.1 c0.2,2,1.6,3.6,3.5,4c0.3,0.1,0.6,0.1,1,0.1c2.3,0,4.2-1.7,4.5-4L76,53.2c1-6.8,4.9-10.8,10.7-10.8c0.7,0,1.4,0,2.1,0.2 c2.8,0.4,5.2,2,6.7,4.3c1.5,2.4,2.1,5,1.8,7.5c-0.1,0.8,0.1,1.6,0.7,2.2s1.3,0.9,2.2,0.9h1.7c2.5,0,4.6-2,4.6-4.5 C106.3,50.6,105.9,48,104.9,45.5z" fill="#FAFAFA"/>
  <path d="M24,29.7c4.5-7.1,14.1-13,24.1-14.8c2.5-0.4,5-0.6,7.1,0.2 c1.6,0.6,2.9,2.1,2,3.8c-0.7,1.4-2.6,2-4.1,2.5c-9.3,3-17.9,6.4-23.1,14.3c-2,3-4.9,14.4-8.6,12.3C17.5,45.7,18.3,38.5,24,29.7z" opacity="0.3" fill="#E68C87" enable-background="new "/>
</svg>

<svg viewBox="0 0 128 128" xmlns="http://www.w3.org/2000/svg">
  <defs/>
  <path d="M124,64 A60 60 0 1 1 4,64 A60 60 0 1 1 124,64 Z" fill="#C62828"/>
  <path d="M116.2,63.1 A56.1 56.1 0 1 1 4,63.1 A56.1 56.1 0 1 1 116.2,63.1 Z" fill="#EF5350"/>
  <path d="M24,29.7 C28.5,22.6 38.1,16.7 48.1,14.9 C50.6,14.5 53.1,14.3 55.2,15.1 C56.8,15.7 58.1,17.2 57.2,18.9 C56.5,20.3 54.6,20.9 53.1,21.4 C43.8,24.4 35.2,27.8 30,35.7 C28,38.7 25.1,50.1 21.4,48 C17.5,45.7 18.3,38.5 24,29.7 Z" fill="#E68C87" opacity="0.6"/>
  <path d="M104.9,45.5 C103,40.5 99,36.6 94,34.8 C91.6,33.9 89.1,33.5 86.7,33.5 C76.4,33.5 67.8,41.6 67.1,51.9 L67.1,52.1 C67.1,52.6 67,53 67,53.5 L64.5,74.2 C64.4,74.8 63.6,74.8 63.5,74.2 L60.9,53 C60.9,52.8 60.9,52.5 60.9,52.2 C60.5,41.7 51.9,33.4 41.3,33.4 C38.6,33.4 35.9,33.9 33.3,35 C28.9,36.8 25.4,40.3 23.5,44.6 C22.1,47.9 21.5,51.4 21.8,54.8 C21.9,56.3 23.3,57.5 24.8,57.5 L26.3,57.5 C26.9,57.5 27.4,57.4 27.9,57.2 C29.7,56.4 30.7,54.8 30.7,53.1 C30.7,50.7 31.5,48.4 33.1,46.1 C34.4,44.3 36.3,43.1 38.5,42.7 C39.5,42.5 40.5,42.4 41.4,42.4 C46.6,42.4 50.1,45.5 51.6,51.3 C51.8,52.2 52,53.1 52.1,54.4 L59.5,98.5 C59.7,100.5 61.1,102.1 63,102.5 C63.3,102.6 63.6,102.6 64,102.6 C66.3,102.6 68.2,100.9 68.5,98.6 L76,53.2 C77,46.4 80.9,42.4 86.7,42.4 C87.4,42.4 88.1,42.4 88.8,42.6 C91.6,43 94,44.6 95.5,46.9 C97,49.3 97.6,51.9 97.3,54.4 C97.2,55.2 97.4,56 98,56.6 C98.6,57.2 99.3,57.5 100.2,57.5 L101.9,57.5 C104.4,57.5 106.5,55.5 106.5,53 C106.3,50.6 105.9,48 104.9,45.5 Z" fill="#FAFAFA"/>
  <path d="M24,29.7 C28.5,22.6 38.1,16.7 48.1,14.9 C50.6,14.5 53.1,14.3 55.2,15.1 C56.8,15.7 58.1,17.2 57.2,18.9 C56.5,20.3 54.6,20.9 53.1,21.4 C43.8,24.4 35.2,27.8 30,35.7 C28,38.7 25.1,50.1 21.4,48 C17.5,45.7 18.3,38.5 24,29.7 Z" fill="#E68C87" opacity="0.3"/>
</svg>
